X: 103
T: the Royal Charlotte
%R: jig
Z: 2014 John Chambers <jc:trillian.mit.edu>
B: Thompson "Twenty four Country Dances for the Year 1762" p.52 #1
F: http://www.vwml.org/browse/browse-collections-dance-tune-books/browse-thompsons1762# 2014-8-11
M: 6/8
L: 1/8
K: A
c/d/ |\
ecA a2e | faf ecA | cea aec | BBB B2c/d/ |\
ecA a2e | faf ecA | def ecA | EAA A2 :|
|: A |\
cAA eAA | fAA eAA | cAA ecc | dBB B2B |\
cAA eAA | fAA faa | aee ecc | cA[AE] [A2A,2] :|
% - - - - - - - - - - - - - - - - - - - - - - - - -
%%begintext align
%% Foot it 4 and right hands across quite round .|.
%% foot it and left back again :|. cross over two Cu: .|:
%% lead to the top and cast off :|:
%%endtext
% - - - - - - - - - - - - - - - - - - - - - - - - -
